X: 3874
T:Pielschmann's Waltz. JMT036
M:3/8
L:1/16
Q:60
S:J.Moore,Tyneside,1841.(27a)
R:Waltz
O:England
A:Northumbria
H:184
Z:C.G.P
K:C
G2-|c2c2G2-|e2e2c2-|g2g2g2|g4g2|g2-e2.e2|e2-g2.e2|c2-e2.d2|c4:|!
G2-|d2d2G2-|e2e2G2|f2f-ef-e|f4f2|a2a2g2|f2f2e2|d2-g2B2|c4:|!
|:Be|(gfedcB)|(fedcBc)|d2d2d2|d4Be|(gfedcB)|(fedcBA)|G2B2B2|c4:|]
